X: 60
T:Lady Anne Montgomery
M:C|
L:1/8
R:Reel
K:D
A[|:FADA FADA|FAdA BAdA|FADF EDEF|DB,A,B, D3E|!
FADA FADA|FAdA BABc|dBAF ~E3F|1|DB,A,B, D3A]:|2DB,A,B, D3e|!
|:f2fe fede|fedB ABde|f2fe fede|fgaf efde|!
f2fe fede|fedB ABde|fded BdAd|1egfe d3e:|2egfe d3A|]!
